X: 18
P: Longways for as many as will
M: C|
L: 1/8
K: Dm
"_First Strain twice"\
d2D2 F2A2 | B2(AG) A2c2 | (fe)(dc) (BA)(GF) | F6 :|\
"_2d Strain once"\
c2 | G2B2 A2d2 |
P: Minuet
M: 3/4
L: 1/8
|:\
"_First Strain twice"\
fe d2 f2 | e2 a2 A2 | d2 e2 f2 | edef e2 |\
fe d2 f2 | e2 a2 A2 | d2 e2 ^c2 | "_D.C."d6 :|
"_The 2d Strain but once, and end with the 1st Strain of the Minuet."\
ag f2 a2 | g2 c'2 c2 | f2 g2 a2 | gfga g2 |\
ag f2 a2 | g2 c'2 c2 | f2 g2 e2 | f2 g2 e2 | e6 |]

